!!!COM: (Achille-) Claude Debussy
!!!OTL: [T154_Deb-w13p13m151-157]
**kern	**dynam	**kern	**dynam	**kern	**dynam	**kern	**dynam
*grp:A	*grp:A	*grp:B	*grp:B	*grp:B	*grp:B	*grp:A	*grp:A
*part4	*part4	*part3	*part3	*part2	*part2	*part1	*part1
*staff4	*staff4	*staff3	*staff3	*staff2	*staff2	*staff1	*staff1
*I"Violoncello	*I"Violoncello	*I"Viola	*I"Viola	*I"Violin II	*I"Violin II	*I"Violin I	*I"Violin I
*I'Vc.	*	*I'Vla.	*	*I'Vln. II	*	*I'Vln. I	*
*clefF4	*	*clefC3	*	*clefG2	*	*clefG2	*
*k[b-e-]	*	*k[b-e-]	*	*k[b-e-]	*	*k[b-e-]	*
*B-:	*	*B-:	*	*B-:	*	*B-:	*
*M4/4	*	*M4/4	*	*M4/4	*	*M4/4	*
=151	=151	=151	=151	=151	=151	=151	=151
!	!	!	!	!	!	!LO:TX:t=[[half]=63]	!
!	!	!	!	!	!	!LO:TX:a:B:t=a Tempo rubato	!
(12DDL	mp	1ryy	4ryy	4ryy	4ryy	(12bbnL	mp
12AA	.	.	.	.	.	12dd	.
12F#XJ)	.	.	.	.	.	12f#XJ	.
(12F#L	.	.	.	8ryy	.	12f#L	.
12AA	.	.	.	.	.	12dd	.
.	.	.	.	8ryy	.	.	.
12DDJ)	.	.	.	.	.	12bbJ)	.
(12DDL	.	.	.	4ryy	.	(12aaL	.
12AA	.	.	.	.	.	12dd	.
12F#J)	.	.	.	.	.	12f#J	.
(12F#L	.	.	.	8ryy	.	12f#L	.
12AA	.	.	.	.	.	12dd	.
.	.	.	.	8ryy	.	.	.
12DDJ)	.	.	.	.	.	12aaJ)	.
=152	=152	=152	=152	=152	=152	=152	=152
*Xtuplet	*	*Xtuplet	*	*Xtuplet	*	*Xtuplet	*
(12DDL	.	12ryy	.	12ryy	.	(12gg#XL	.
12BBn	.	12ryy	.	12ryy	.	12ff#X	.
12F#XJ)	.	12ryy	.	12ryy	.	12ddJ)	.
(12F#L	.	12ryy	.	12ryy	.	(2dd	.
12BB	.	12ryy	.	12ryy	.	.	.
12DDJ)	.	12ryy	.	12ryy	.	.	.
(12DDL	.	12ryy	.	12ryy	.	.	.
12BB	.	12ryy	.	12ryy	.	.	.
12F#J)	.	12ryy	.	12ryy	.	.	.
(12F#L	.	12ryy	.	12ryy	.	4een)	.
12BB	.	12ryy	.	12ryy	.	.	.
12DDJ)	.	12ryy	.	12ryy	.	.	.
=153	=153	=153	=153	=153	=153	=153	=153
!	!LO:HP:t=dim.	!	!LO:HP:t=dim.	!	!LO:HP:t=dim.	!	!LO:HP:t=dim.
(12DDL	>	4ryy	4ryy	4ryy	4ryy	(12ff#XL	>
12AA	.	.	.	.	.	12a	.
12F#XJ)	.	.	.	.	.	12dJ)	.
(12F#L	.	8ryy	.	8ryy	.	(12dL	.
12AA	.	.	.	.	.	12a	.
.	.	8ryy	.	8ryy	.	.	.
12DDJ)	.	.	.	.	.	12ff#J)	.
(12DDL	.	4ryy	.	4ryy	.	(12ff#L	.
12AA	.	.	.	.	.	12a	.
12F#J)	.	.	.	.	.	12dJ)	.
(12F#L	.	8ryy	.	8ryy	.	(12dL	.
12AA	.	.	.	.	.	12a	.
.	.	8ryy	.	8ryy	.	.	.
12DDJ)	.	.	.	.	.	12ff#J)	.
=154	=154	=154	=154	=154	=154	=154	=165
(12DDL	.	2ryy	.	2ryy	.	(12ff#XL	.
12BBn	.	.	.	.	.	12bn	.
12F#XJ)	.	.	.	.	.	12dJ)	.
(12F#L	.	.	.	.	.	(12dL	.
12BB	.	.	.	.	.	12b	.
12DDJ)	.	.	.	.	.	12ff#J)	.
*	*	*tuplet	*	*tuplet	*	*	*
(12DDL	.	6ryy	.	6ryy	.	(12ff#L	.
12BB	.	.	.	.	.	12b	.
12F#J)	.	6ryy	.	6ryy	.	12dJ)	.
(12F#L	.	.	.	.	.	(12dL	.
12BB	.	6ryy	.	6ryy	.	12b	.
12DDJ)	.	.	.	.	.	12ff#J)	.
=155	=155	=155	=155	=155	=155	=155	=155
(12DDL	.	4ryy	.	4ryy	.	(12ff#XL	.
12AA	.	.	.	.	.	12a	.
12F#XJ)	.	.	.	.	.	12dJ)	.
(12F#L	.	8ryy	.	8ryy	.	(12dL	.
12AA	.	.	.	.	.	12a	.
.	.	8ryy	.	8ryy	.	.	.
12DDJ)	.	.	.	.	.	12ff#J)	.
(12DDL	.	4ryy	.	4ryy	.	(12ff#L	.
12AA	.	.	.	.	.	12a	.
12F#J)	.	.	.	.	.	12dJ)	.
(12F#L	.	8ryy	.	8ryy	.	(12dL	.
12AA	.	.	.	.	.	12a	.
.	.	8ryy	.	8ryy	.	.	.
12DDJ)	.	.	.	.	.	12ff#J)	.
=156	=156	=156	=156	=156	=156	=156	=156
(12DDL	.	2ryy	.	2ryy	.	(12ff#XL	.
12BBn	.	.	.	.	.	12bn	.
12F#XJ)	.	.	.	.	.	12dJ)	.
(12F#L	.	.	.	.	.	(12dL	.
12BB	.	.	.	.	.	12b	.
12DDJ)	.	.	.	.	.	12ff#J)	.
(12DDL	.	4ryy	.	4ryy	.	(12ddL	.
12BB	.	.	.	.	.	12g#X	.
12F#J)	.	.	.	.	.	12BnJ)	.
(12F#L	.	4ryy	.	4ryy	.	(12BL	.
12BB	.	.	.	.	.	12g#	.
12DDJ)	.	.	.	.	.	12ddJ)	.
=157	=157	=157	=157	=157	=157	=157	=157
!	!LO:HP:t=très dim.	!	!LO:HP:t=très dim.	!	!LO:HP:t=très dim.	!	!LO:HP:t=très dim.
(12DDL	>	4ryy	4ryy	4ryy	4ryy	(12aL	>
12AA	.	.	.	.	.	12f#X	.
12F#XJ)	.	.	.	.	.	12AJ)	.
(12F#L	.	8ryy	.	8ryy	.	(12AL	.
12AA	.	.	.	.	.	12f#	.
.	.	8ryy	.	8ryy	.	.	.
12DDJ)	.	.	.	.	.	12aJ)	.
(12DDL	.	4ryy	.	4ryy	.	(12aL	.
12AA	.	.	.	.	.	12f#	.
12F#J)	.	.	.	.	.	12AJ)	.
(12F#L	.	8ryy	.	8ryy	.	(12AL	.
12AA	.	.	.	.	.	12f#	.
.	.	8ryy	.	8ryy	.	.	.
12DDJ)	.	.	.	.	.	12aJ)	.
=	=	=	=	=	=	=	=
*-	*-	*-	*-	*-	*-	*-	*-
!!!system-decoration: [(s1,s2,s3,s4)]
!!!RDF**kern: > = above
!!!RDF**kern: < = below
!!!EED: Daniel Wright
!!!EEV: 2021/07/06
!!!EED2: Gabriella Vici
!!!EEV2: 2022/01/26
